public/svg/astro.svg

<svg width="141" height="192" viewBox="0 0 141 192" fill="none" xmlns="http://www.w3.org/2000/svg">
  <path
    d="M96.0338 14.3096C97.4433 16.0537 98.1617 18.4071 99.5991 23.1138L131 125.936C119.205 119.835 106.546 115.563 93.4588 113.267L73.0136 44.3973C72.8505 43.848 72.5134 43.3661 72.0527 43.0236C71.592 42.6812 71.0324 42.4966 70.4578 42.4975C69.8831 42.4984 69.3241 42.6848 68.8645 43.0286C68.4049 43.3725 68.0693 43.8555 67.908 44.4053L47.7104 113.232C34.564 115.517 21.8464 119.796 10 125.92L41.5545 23.0898C42.9966 18.3915 43.7179 16.0419 45.1273 14.3011C46.3716 12.7643 47.9901 11.5708 49.8284 10.8344C51.9104 10 54.3753 10 59.3047 10H81.8423C86.7783 10 89.246 10 91.3304 10.8358C93.1702 11.574 94.7893 12.77 96.0334 14.3096H96.0338Z"
    fill="#00D0FF" />
  <path
    d="M99.7915 130.83C94.6149 135.241 84.2827 138.251 72.3812 138.251C57.7742 138.251 45.531 133.718 42.2824 127.622C41.1206 131.115 40.8602 135.114 40.8602 137.668C40.8602 137.668 40.095 150.211 48.8471 158.936C48.8471 154.406 52.5315 150.733 57.0761 150.733C64.8655 150.733 64.856 157.507 64.8494 163.003L64.8489 163.493C64.8489 171.835 69.9631 178.986 77.2372 182C76.1176 179.703 75.5376 177.182 75.5414 174.628C75.5414 166.672 80.2268 163.71 85.6727 160.268C90.0056 157.528 94.8201 154.485 98.1376 148.38C99.9244 145.091 100.857 141.408 100.852 137.668C100.852 135.284 100.48 132.986 99.7915 130.83Z"
    fill="#00D0FF" />
</svg>

<svg xmlns="http://www.w3.org/2000/svg" width="141" height="192" fill="none" viewBox="0 0 141 192"><path fill="#00d0ff" d="M96.034 14.31c1.41 1.744 2.128 4.097 3.565 8.804L131 125.936a131 131 0 0 0-37.541-12.669l-20.445-68.87a2.65 2.65 0 0 0-.961-1.373 2.667 2.667 0 0 0-4.145 1.381L47.71 113.232A131 131 0 0 0 10 125.92L41.554 23.09c1.443-4.698 2.164-7.048 3.573-8.789a11.6 11.6 0 0 1 4.701-3.467C51.91 10 54.375 10 59.305 10h22.537c4.936 0 7.404 0 9.488.836a11.6 11.6 0 0 1 4.703 3.474M99.792 130.83c-5.177 4.411-15.51 7.421-27.41 7.421-14.608 0-26.851-4.533-30.1-10.629-1.161 3.493-1.422 7.492-1.422 10.046 0 0-.765 12.543 7.987 21.268 0-4.53 3.685-8.203 8.23-8.203 7.788 0 7.779 6.774 7.772 12.27v.49c0 8.342 5.114 15.493 12.388 18.507a16.8 16.8 0 0 1-1.696-7.372c0-7.956 4.686-10.918 10.132-14.36 4.333-2.74 9.147-5.783 12.465-11.888a22.4 22.4 0 0 0 2.714-10.712c0-2.384-.372-4.682-1.06-6.838"/></svg>
